icons/1_Primary/Ring.svg

<svg xmlns="http://www.w3.org/2000/svg" width="1024" height="1024" fill="none">
   <g clip-path="url(#a)">
      <path fill="#9ABEFF" d="M512 1024c282.77 0 512-229.23 512-512S794.77 0 512 0 0 229.23 0 512s229.23 512 512 512Z"/>
      <path fill="#fff" d="M792.37 602.5a70.74 70.74 0 0 1-5.71 28.56 72.239 72.239 0 0 1-38.79 38.51 71.17 71.17 0 0 1-28.42 5.73 85.673 85.673 0 0 1-16.45-1.7 93.984 93.984 0 0 1-17.14-5.06 73.842 73.842 0 0 1-15.69-8.54 46.859 46.859 0 0 1-11.76-12 10.67 10.67 0 0 1-1.86-6.38 10.253 10.253 0 0 1 3.53-8 11.69 11.69 0 0 1 8-3.2c1.598.017 3.178.333 4.66.93a9.094 9.094 0 0 1 4.31 3.94 1.069 1.069 0 0 0 .37.74l1.48 1.51a41.89 41.89 0 0 0 18.51 11.76 70.772 70.772 0 0 0 21.88 3.57 49.164 49.164 0 0 0 19.63-3.94A50.78 50.78 0 0 0 765.86 622a49.058 49.058 0 0 0 4.08-19.51v-25.72a72.641 72.641 0 0 1-22.85 14.78 71.644 71.644 0 0 1-27.68 5.45 70.654 70.654 0 0 1-28.56-5.71 72.768 72.768 0 0 1-38.51-38.51 70.529 70.529 0 0 1-5.73-28.58v-59a70.937 70.937 0 0 1 5.73-28.42 73.178 73.178 0 0 1 15.5-23.2A74.289 74.289 0 0 1 690.72 398a73.082 73.082 0 0 1 57.14 0 72.627 72.627 0 0 1 44.4 67.11v137.37l.11.02Zm-22.43-137.33a49.117 49.117 0 0 0-3.94-19.62 50.628 50.628 0 0 0-74.549-22.436 50.624 50.624 0 0 0-18.661 22.436 49.502 49.502 0 0 0-3.9 19.6v58.71a49.473 49.473 0 0 0 3.9 19.79 50.9 50.9 0 0 0 10.86 16.08 50.35 50.35 0 0 0 16.1 10.83 50.491 50.491 0 0 0 55.108-10.595 50.48 50.48 0 0 0 11.052-16.315 49.095 49.095 0 0 0 4-19.79l.03-58.69ZM601.71 589.42a10.096 10.096 0 0 1-3.57 8.42 11.85 11.85 0 0 1-15.31 0 10.069 10.069 0 0 1-3.55-8.42V465.17a49.13 49.13 0 0 0-3.94-19.63 50.499 50.499 0 0 0-93.07 0 49.34 49.34 0 0 0-3.94 19.63v124.25a10.067 10.067 0 0 1-3.53 8.42 11.85 11.85 0 0 1-15.33 0 10.069 10.069 0 0 1-3.55-8.42V465.17a70.949 70.949 0 0 1 5.71-28.42 73.372 73.372 0 0 1 15.54-23.2A74.3 74.3 0 0 1 500 398a73.077 73.077 0 0 1 57.16 0 72.74 72.74 0 0 1 44.4 67.11l.15 124.31Zm-194.47 0a10.093 10.093 0 0 1-3.53 8.42 11.85 11.85 0 0 1-15.36 0 10.067 10.067 0 0 1-3.53-8.42V407.2a10.093 10.093 0 0 1 3.53-8.42 11.88 11.88 0 0 1 15.36 0 10.101 10.101 0 0 1 3.53 8.42v182.22Zm-56-171a10.738 10.738 0 0 1-3.36 7.84 11.199 11.199 0 0 1-8.24 3.29 11.666 11.666 0 0 1-7.86-3.36l-.37-.39a3.458 3.458 0 0 0-.74-.56 2.837 2.837 0 0 1-.77-.58 44.079 44.079 0 0 0-28.77-10c-13.473 0-24.013 4.6-31.62 13.8-7.607 9.2-11.41 22.29-11.41 39.27v121.66a10.081 10.081 0 0 1-3.55 8.42 11.696 11.696 0 0 1-15.31 0 10.069 10.069 0 0 1-3.55-8.42V467.77a101.174 101.174 0 0 1 4.15-29.32 70.379 70.379 0 0 1 12.29-23.92 59.057 59.057 0 0 1 20.37-16.38 64.112 64.112 0 0 1 28.56-6 71.461 71.461 0 0 1 24.67 4.85 59.697 59.697 0 0 1 21.67 13.45 11.118 11.118 0 0 1 3.78 8l.06-.03Zm64-72.56A19.16 19.16 0 0 1 396.09 365a19.146 19.146 0 0 1-13.554-5.598 19.172 19.172 0 0 1-4.16-6.211 19.176 19.176 0 0 1-1.466-7.331A19.16 19.16 0 0 1 396 326.7a19.155 19.155 0 0 1 13.548 5.612 19.16 19.16 0 0 1 5.612 13.548h.08Z"/>
   </g>
   <defs>
      <clipPath id="a">
         <path fill="#fff" d="M0 0h1024v1024H0z"/>
      </clipPath>
   </defs>
</svg>

<svg width="1024" height="1024" viewBox="0 0 1024 1024" fill="none" xmlns="http://www.w3.org/2000/svg">
<g clip-path="url(#clip0_2_3339)">
<path d="M512 1024C794.77 1024 1024 794.77 1024 512C1024 229.23 794.77 0 512 0C229.23 0 0 229.23 0 512C0 794.77 229.23 1024 512 1024Z" fill="#9ABEFF"/>
<path d="M792.37 602.5C792.468 612.313 790.524 622.039 786.66 631.06C779.273 648.482 765.345 662.309 747.87 669.57C738.89 673.41 729.216 675.36 719.45 675.3C713.925 675.265 708.416 674.696 703 673.6C697.139 672.462 691.4 670.767 685.86 668.54C680.304 666.339 675.035 663.471 670.17 660C665.559 656.741 661.575 652.676 658.41 648C657.127 646.126 656.475 643.891 656.55 641.62C656.512 640.109 656.809 638.608 657.419 637.225C658.03 635.842 658.938 634.611 660.08 633.62C662.242 631.574 665.103 630.429 668.08 630.42C669.678 630.437 671.258 630.753 672.74 631.35C674.571 632.154 676.086 633.539 677.05 635.29C677.06 635.432 677.097 635.57 677.161 635.697C677.224 635.824 677.312 635.938 677.42 636.03L678.9 637.54C683.916 643.034 690.305 647.093 697.41 649.3C704.471 651.632 711.855 652.837 719.29 652.87C726.034 652.917 732.716 651.576 738.92 648.93C751.054 643.789 760.715 634.132 765.86 622C768.541 615.845 769.929 609.204 769.94 602.49V576.77C763.322 583.092 755.57 588.107 747.09 591.55C738.316 595.183 728.907 597.036 719.41 597C709.597 597.101 699.87 595.156 690.85 591.29C673.513 583.922 659.708 570.118 652.34 552.78C648.461 543.757 646.509 534.022 646.61 524.2V465.2C646.543 455.433 648.494 445.758 652.34 436.78C655.971 428.124 661.233 420.248 667.84 413.58C674.423 406.999 682.185 401.714 690.72 398C699.756 394.162 709.473 392.183 719.29 392.183C729.107 392.183 738.824 394.162 747.86 398C761.052 403.564 772.305 412.903 780.205 424.843C788.105 436.784 792.299 450.793 792.26 465.11V602.48L792.37 602.5ZM769.94 465.17C769.987 458.429 768.646 451.751 766 445.55C762.117 436.402 755.627 428.599 747.34 423.114C739.052 417.628 729.333 414.703 719.395 414.703C709.457 414.703 699.738 417.628 691.451 423.114C683.163 428.599 676.673 436.402 672.79 445.55C670.171 451.75 668.844 458.42 668.89 465.15V523.86C668.817 530.655 670.145 537.391 672.79 543.65C675.345 549.657 679.033 555.116 683.65 559.73C688.264 564.35 693.732 568.028 699.75 570.56C705.861 573.138 712.42 574.487 719.052 574.529C725.685 574.572 732.26 573.308 738.404 570.809C744.548 568.31 750.139 564.625 754.858 559.965C759.578 555.306 763.333 549.762 765.91 543.65C768.6 537.402 769.962 530.663 769.91 523.86L769.94 465.17ZM601.71 589.42C601.82 591.006 601.554 592.595 600.934 594.058C600.313 595.521 599.356 596.817 598.14 597.84C596 599.651 593.288 600.645 590.485 600.645C587.682 600.645 584.97 599.651 582.83 597.84C581.616 596.816 580.662 595.519 580.045 594.056C579.428 592.593 579.166 591.004 579.28 589.42V465.17C579.328 458.426 577.987 451.744 575.34 445.54C571.481 436.386 565.008 428.573 556.731 423.079C548.453 417.585 538.74 414.655 528.805 414.655C518.871 414.655 509.157 417.585 500.879 423.079C492.602 428.573 486.129 436.386 482.27 445.54C479.629 451.745 478.288 458.426 478.33 465.17V589.42C478.447 591.003 478.188 592.59 477.574 594.053C476.961 595.516 476.01 596.814 474.8 597.84C472.659 599.656 469.943 600.653 467.135 600.653C464.328 600.653 461.611 599.656 459.47 597.84C458.256 596.816 457.302 595.519 456.685 594.056C456.068 592.593 455.806 591.004 455.92 589.42V465.17C455.847 455.405 457.791 445.73 461.63 436.75C465.277 428.093 470.553 420.217 477.17 413.55C483.741 406.985 491.485 401.711 500 398C509.039 394.159 518.759 392.179 528.58 392.179C538.401 392.179 548.121 394.159 557.16 398C570.343 403.577 581.587 412.919 589.485 424.857C597.383 436.794 601.583 450.796 601.56 465.11L601.71 589.42ZM407.24 589.42C407.355 591.002 407.095 592.589 406.482 594.052C405.869 595.515 404.919 596.813 403.71 597.84C401.567 599.664 398.844 600.666 396.03 600.666C393.216 600.666 390.493 599.664 388.35 597.84C387.14 596.814 386.189 595.516 385.576 594.053C384.963 592.59 384.704 591.003 384.82 589.42V407.2C384.705 405.618 384.965 404.031 385.578 402.568C386.192 401.105 387.141 399.807 388.35 398.78C390.496 396.962 393.217 395.964 396.03 395.964C398.843 395.964 401.564 396.962 403.71 398.78C404.918 399.808 405.867 401.106 406.48 402.569C407.093 404.032 407.353 405.618 407.24 407.2V589.42ZM351.24 418.42C351.245 419.887 350.95 421.34 350.372 422.688C349.794 424.036 348.946 425.252 347.88 426.26C346.803 427.341 345.517 428.19 344.1 428.756C342.683 429.322 341.165 429.592 339.64 429.55C336.689 429.465 333.881 428.264 331.78 426.19L331.41 425.8C331.19 425.581 330.941 425.393 330.67 425.24C330.382 425.092 330.122 424.896 329.9 424.66C321.803 418.014 311.604 414.469 301.13 414.66C287.657 414.66 277.117 419.26 269.51 428.46C261.903 437.66 258.1 450.75 258.1 467.73V589.39C258.213 590.974 257.95 592.562 257.333 594.025C256.716 595.488 255.763 596.785 254.55 597.81C252.424 599.65 249.707 600.662 246.895 600.662C244.084 600.662 241.366 599.65 239.24 597.81C238.026 596.786 237.072 595.489 236.455 594.026C235.838 592.563 235.576 590.974 235.69 589.39V467.77C235.628 457.846 237.026 447.967 239.84 438.45C242.361 429.761 246.534 421.639 252.13 414.53C257.611 407.617 264.572 402.02 272.5 398.15C281.432 393.981 291.205 391.928 301.06 392.15C309.505 392.296 317.858 393.938 325.73 397C333.838 399.87 341.23 404.458 347.4 410.45C348.544 411.454 349.469 412.682 350.119 414.058C350.769 415.434 351.13 416.929 351.18 418.45L351.24 418.42ZM415.24 345.86C415.235 350.937 413.215 355.803 409.625 359.392C406.034 362.98 401.166 364.998 396.09 365C393.574 365.003 391.082 364.51 388.756 363.549C386.431 362.589 384.317 361.18 382.536 359.402C380.755 357.625 379.342 355.514 378.376 353.191C377.411 350.867 376.913 348.376 376.91 345.86C376.91 340.791 378.919 335.928 382.497 332.337C386.075 328.746 390.931 326.719 396 326.7C398.516 326.7 401.008 327.196 403.332 328.159C405.657 329.122 407.769 330.533 409.548 332.312C411.327 334.091 412.739 336.203 413.702 338.528C414.665 340.853 415.16 343.344 415.16 345.86H415.24Z" fill="white"/>
</g>
<defs>
<clipPath id="clip0_2_3339">
<rect width="1024" height="1024" fill="white"/>
</clipPath>
</defs>
</svg>
